source/sprite/active-listing.svg

<svg xmlns="http://www.w3.org/2000/svg" width="459" height="459">
  <path d="M408 0H51C22.95 0 0 22.95 0 51v357c0 28.05 22.95 51 51 51h357c28.05 0 51-22.95 51-51V51c0-28.05-22.95-51-51-51zM153 357h-51v-51h51v51zm0-102h-51v-51h51v51zm0-102h-51v-51h51v51zm204 204H178.5v-51H357v51zm0-102H178.5v-51H357v51zm0-102H178.5v-51H357v51z"/>
</svg>

<?xml version="1.0" encoding="iso-8859-1"?>
<!-- Generator: Adobe Illustrator 16.0.0, SVG Export Plug-In . SVG Version: 6.00 Build 0)  -->
<!DOCTYPE svg PUBLIC "-//W3C//DTD SVG 1.1//EN" "http://www.w3.org/Graphics/SVG/1.1/DTD/svg11.dtd">
<svg version="1.1" id="Capa_1" xmlns="http://www.w3.org/2000/svg" xmlns:xlink="http://www.w3.org/1999/xlink" x="0px" y="0px"
	 width="459px" height="459px" viewBox="0 0 459 459" style="enable-background:new 0 0 459 459;" xml:space="preserve">
<g>
	<g id="drive-form">
		<path d="M408,0H51C22.95,0,0,22.95,0,51v357c0,28.05,22.95,51,51,51h357c28.05,0,51-22.95,51-51V51C459,22.95,436.05,0,408,0z
			 M153,357h-51v-51h51V357z M153,255h-51v-51h51V255z M153,153h-51v-51h51V153z M357,357H178.5v-51H357V357z M357,255H178.5v-51
			H357V255z M357,153H178.5v-51H357V153z"/>
	</g>
</g>
<g>
</g>
<g>
</g>
<g>
</g>
<g>
</g>
<g>
</g>
<g>
</g>
<g>
</g>
<g>
</g>
<g>
</g>
<g>
</g>
<g>
</g>
<g>
</g>
<g>
</g>
<g>
</g>
<g>
</g>
</svg>
